T: Nathaniel Gow's Quickstep
M: 6/8
L: 1/8
K: Gmaj
G2 G ABc | dBG G2 B | c2 c EFG | AFD D2 F | G2 G ABc | dBG G2 B | c2 c DEF | G3 G2 :|g2 g efg | fdB B2 d | e2 e cde | dBG G2 d | [1 g2 g efg | fdB B2 g | fed ed^c | d3 d2 :|[2 e^de fef | gfe d2 B | A/B/cB AGF | G3 G2 |]
